X:316
T:Highlandman Kissed His Mother, The
R:Reel
B:The Athole Collection
M:C|
L:1/8
K:A Minor
cgge gcge|cgge dBGB|cgge gcge|a^fge dBGB:|
|:ceAe ceAe|ceAe dBGB|deAe ceA^g|a^fge dBGB:|

